X: 29995
T: Ode To Joy
R: jig
M: 6/8
K: Gmajor
|:B3 c2d|ded cBA|DGG A2B|BAA AFD|
B3 c2d|ded cBA|D3 GAB|ABA G3:|
|:A3 BDD|ABc BDD|ABc dBA|GAB "D"D3|
B3 c2d|ded cBA|D3 GAB|ABA G3:|

